!! 00000] TT[00
!! NN
!!!OTL: Xiu hongdeng
!!!ARE: Asia, China,ÿLiaoning, Geixian
!! Ethnic Group: Han
!! III, 198
!!!SCT: C0289
!!!YEM: Copyright 1995, estate of Helmut Schaffrath.
**kern
*ICvox
*Ivox
*M2/4
*k[f#c#]
*D:
{8dd
8dd
8a
8b
=1
8a
4a
16b
16a
=2
8f#
8f#
16e
16d
16e
16f#
=3
2a}
=4
{8.dd
16ee
4ff#
=5
4ee
4dd
=6
8b
8a
8f#
16e
16f#
=7
8a
8a
16g#
16a
8b
=8
2a}
=9
{8b
8b
8b
16a
16b
=10
8dd
8dd
8b
8a
=11
8f#
8f#
8f#
8b
=12
8.a
16b
8a
8f#}
=13
{8.e
16d#
8e
8e
=14
8r
4a
8e
=15
8.f#
16a
8f#
8e
=16
8d
4d
8e
=17
2d}
=18
{8.b
16a
8b
8ee
=19
8dd
8b
8a
8f#}
=20
{8.e
16d#
8e
8e
=21
8r
4a
8e
=22
8.f#
16a
8f#
8e
=23
8d
4d
8e
=24
2d}
==
!!!AGN: Xiaodiao, Shidiao, Xiuyunjian diao, Jiandianhua diao Xin minge
!! Text neu. Melodie traditionell.
!!    Die beiden letzten Takte der 5. Strophe sind eine Oktave hoeher notiert
!!!ONB: ESAC (Essen Associative Code) Database: CHINA
!!!AMT: simple duple
!!!AIN: vox
!!!EED: Helmut Schaffrath
!!!EEV: 1.0
*-
